dist/images/icons/scroll.svg

<svg width="37" height="38" viewBox="0 0 37 38" fill="none" xmlns="http://www.w3.org/2000/svg">
<path d="M5.01074 15.9166V22.0833H7.32324V15.9166H5.01074ZM31.9899 22.0833V15.9166H29.6774V22.0833H31.9899ZM31.9899 15.9166C31.9899 12.3389 30.5687 8.9078 28.0389 6.37801C25.5091 3.84822 22.078 2.427 18.5003 2.427V4.7395C21.4647 4.7395 24.3076 5.91708 26.4037 8.01319C28.4998 10.1093 29.6774 12.9522 29.6774 15.9166H31.9899ZM18.5003 35.5728C20.2718 35.5728 22.0259 35.2239 23.6626 34.546C25.2992 33.8681 26.7863 32.8745 28.0389 31.6218C29.2915 30.3692 30.2852 28.8821 30.9631 27.2455C31.641 25.6089 31.9899 23.8547 31.9899 22.0833H29.6774C29.6774 25.0476 28.4998 27.8905 26.4037 29.9866C24.3076 32.0828 21.4647 33.2603 18.5003 33.2603V35.5728ZM5.01074 22.0833C5.01074 25.6609 6.43196 29.092 8.96175 31.6218C11.4915 34.1516 14.9227 35.5728 18.5003 35.5728V33.2603C15.536 33.2603 12.693 32.0828 10.5969 29.9866C8.50082 27.8905 7.32324 25.0476 7.32324 22.0833H5.01074ZM7.32324 15.9166C7.32324 12.9522 8.50082 10.1093 10.5969 8.01319C12.693 5.91708 15.536 4.7395 18.5003 4.7395V2.427C14.9227 2.427 11.4915 3.84822 8.96175 6.37801C6.43196 8.9078 5.01074 12.3389 5.01074 15.9166H7.32324Z" fill="#BAE9F1"/>
<path d="M18.2684 9.15523L19.0855 8.33815C18.8687 8.12162 18.5748 8 18.2684 8C17.962 8 17.6681 8.12162 17.4513 8.33815L18.2684 9.15523ZM18.2684 21.4886L17.4513 22.3056C17.6681 22.5222 17.962 22.6438 18.2684 22.6438C18.5748 22.6438 18.8687 22.5222 19.0855 22.3056L18.2684 21.4886ZM14.368 11.4215C14.1638 11.6407 14.0526 11.9306 14.0579 12.2301C14.0631 12.5297 14.1845 12.8155 14.3963 13.0273C14.6082 13.2392 14.894 13.3605 15.1935 13.3658C15.4931 13.3711 15.783 13.2599 16.0022 13.0556L14.368 11.4215ZM20.5347 13.0556C20.6405 13.1692 20.7682 13.2604 20.91 13.3236C21.0518 13.3868 21.205 13.4207 21.3602 13.4235C21.5155 13.4262 21.6697 13.3977 21.8136 13.3395C21.9576 13.2814 22.0884 13.1948 22.1982 13.085C22.308 12.9752 22.3945 12.8444 22.4527 12.7004C22.5109 12.5565 22.5394 12.4023 22.5367 12.247C22.5339 12.0918 22.5 11.9387 22.4368 11.7968C22.3736 11.655 22.2824 11.5273 22.1688 11.4215L20.5347 13.0556ZM16.0022 17.5882C15.8963 17.4745 15.7687 17.3834 15.6268 17.3202C15.485 17.257 15.3319 17.2231 15.1766 17.2203C15.0214 17.2176 14.8672 17.2461 14.7232 17.3043C14.5792 17.3624 14.4485 17.449 14.3387 17.5588C14.2289 17.6686 14.1423 17.7994 14.0842 17.9434C14.026 18.0873 13.9974 18.2415 14.0002 18.3968C14.0029 18.552 14.0369 18.7051 14.1001 18.847C14.1633 18.9888 14.2544 19.1165 14.368 19.2223L16.0022 17.5882ZM22.1688 19.2223C22.2824 19.1165 22.3736 18.9888 22.4368 18.847C22.5 18.7051 22.5339 18.552 22.5367 18.3968C22.5394 18.2415 22.5109 18.0873 22.4527 17.9434C22.3945 17.7994 22.308 17.6686 22.1982 17.5588C22.0884 17.449 21.9576 17.3624 21.8136 17.3043C21.6697 17.2461 21.5155 17.2176 21.3602 17.2203C21.205 17.2231 21.0518 17.257 20.91 17.3202C20.7682 17.3834 20.6405 17.4745 20.5347 17.5882L22.1688 19.2223ZM17.1122 9.15523V21.4886H19.4247V9.15523H17.1122ZM17.4513 8.33815L14.368 11.4215L16.0022 13.0556L19.0855 9.97232L17.4513 8.33815ZM17.4513 9.97232L20.5347 13.0556L22.1688 11.4215L19.0855 8.33815L17.4513 9.97232ZM19.0855 20.6715L16.0022 17.5882L14.368 19.2223L17.4513 22.3056L19.0855 20.6715ZM19.0855 22.3056L22.1688 19.2223L20.5347 17.5882L17.4513 20.6715L19.0855 22.3056Z" fill="#BAE9F1"/>
</svg>

<svg width="37" height="38" fill="none" xmlns="http://www.w3.org/2000/svg"><path d="M5.01 15.917v6.166h2.313v-6.166H5.011zm26.98 6.166v-6.166h-2.313v6.166h2.313zm0-6.166A13.49 13.49 0 0018.5 2.427v2.312a11.177 11.177 0 0111.177 11.178h2.313zM18.5 35.573a13.49 13.49 0 0013.49-13.49h-2.313A11.177 11.177 0 0118.5 33.26v2.313zM5.01 22.083a13.49 13.49 0 0013.49 13.49V33.26A11.177 11.177 0 017.323 22.083H5.011zm2.313-6.166A11.177 11.177 0 0118.5 4.739V2.427a13.49 13.49 0 00-13.49 13.49h2.313zm10.945-6.762l.817-.817a1.156 1.156 0 00-1.634 0l.817.817zm0 12.334l-.817.817a1.156 1.156 0 001.634 0l-.817-.817zm-3.9-10.068a1.156 1.156 0 001.634 1.635l-1.634-1.634zm6.167 1.635a1.156 1.156 0 101.634-1.634l-1.634 1.634zm-4.533 4.532a1.155 1.155 0 10-1.634 1.634l1.634-1.634zm6.167 1.634a1.156 1.156 0 10-1.634-1.634l1.634 1.634zM17.112 9.155V21.49h2.313V9.155h-2.313zm.34-.817l-3.084 3.084 1.634 1.634 3.084-3.084-1.635-1.634zm0 1.634l3.083 3.084 1.634-1.634-3.084-3.084-1.634 1.634zm1.633 10.7l-3.083-3.084-1.634 1.634 3.083 3.084 1.634-1.634zm0 1.634l3.084-3.084-1.634-1.634-3.084 3.084 1.634 1.634z" fill="#BAE9F1"/></svg>
